resources/svg/page-break-o.svg

<svg width="15" height="15" viewBox="0 0 15 15" fill="none" xmlns="http://www.w3.org/2000/svg">
<path d="M0.5 8.99347H0V9.99347H0.5V8.99347ZM2.5 9.99347H3V8.99347H2.5V9.99347ZM4.5 8.99347H4V9.99347H4.5V8.99347ZM6.5 9.99347H7V8.99347H6.5V9.99347ZM8.5 8.99347H8V9.99347H8.5V8.99347ZM10.5 9.99347H11V8.99347H10.5V9.99347ZM12.5 8.99347H12V9.99347H12.5V8.99347ZM14.5 9.99347H15V8.99347H14.5V9.99347ZM10.5 0.5L10.8536 0.146447L10.7071 0H10.5V0.5ZM13.5 3.5H14V3.29289L13.8536 3.14645L13.5 3.5ZM0.5 9.99347H2.5V8.99347H0.5V9.99347ZM4.5 9.99347H6.5V8.99347H4.5V9.99347ZM8.5 9.99347H10.5V8.99347H8.5V9.99347ZM12.5 9.99347H14.5V8.99347H12.5V9.99347ZM12.5 14H2.5V15H12.5V14ZM2.5 1H10.5V0H2.5V1ZM10.1464 0.853553L13.1464 3.85355L13.8536 3.14645L10.8536 0.146447L10.1464 0.853553ZM13 3.5V8H14V3.5H13ZM13 11.75V13.5H14V11.75H13ZM2 8V1.5H1V8H2ZM2 13.5V11H1V13.5H2ZM2.5 14C2.22386 14 2 13.7761 2 13.5H1C1 14.3284 1.67157 15 2.5 15V14ZM12.5 15C13.3284 15 14 14.3284 14 13.5H13C13 13.7761 12.7761 14 12.5 14V15ZM2.5 0C1.67157 0 1 0.671573 1 1.5H2C2 1.22386 2.22386 1 2.5 1V0Z" fill="black"/>
</svg>

<svg viewBox="0 0 15 15" fill="none" xmlns="http://www.w3.org/2000/svg" fill="currentColor"><path d="M.5 8.993H0v1h.5v-1zm2 1H3v-1h-.5v1zm2-1H4v1h.5v-1zm2 1H7v-1h-.5v1zm2-1H8v1h.5v-1zm2 1h.5v-1h-.5v1zm2-1H12v1h.5v-1zm2 1h.5v-1h-.5v1zM10.5.5l.354-.354L10.707 0H10.5v.5zm3 3h.5v-.207l-.146-.147-.354.354zM.5 9.993h2v-1h-2v1zm4 0h2v-1h-2v1zm4 0h2v-1h-2v1zm4 0h2v-1h-2v1zm0 4.007h-10v1h10v-1zM2.5 1h8V0h-8v1zm7.646-.146l3 3 .708-.708-3-3-.708.708zM13 3.5V8h1V3.5h-1zm0 8.25v1.75h1v-1.75h-1zM2 8V1.5H1V8h1zm0 5.5V11H1v2.5h1zm.5.5a.5.5 0 01-.5-.5H1A1.5 1.5 0 002.5 15v-1zm10 1a1.5 1.5 0 001.5-1.5h-1a.5.5 0 01-.5.5v1zM2.5 0A1.5 1.5 0 001 1.5h1a.5.5 0 01.5-.5V0z" fill="currentColor"/></svg>
